angular_tdd/img/brand.svg

<?xml version="1.0" encoding="UTF-8"?>
<svg width="106px" height="40px" viewBox="0 0 106 40" version="1.1" xmlns="http://www.w3.org/2000/svg" xmlns:xlink="http://www.w3.org/1999/xlink">
    <!-- Generator: Sketch 44.1 (41455) - http://www.bohemiancoding.com/sketch -->
    <title>brand</title>
    <desc>Created with Sketch.</desc>
    <defs></defs>
    <g id="Page-1" stroke="none" stroke-width="1" fill="none" fill-rule="evenodd">
        <g id="Desktop-HD" transform="translate(-167.000000, -36.000000)">
            <g id="brand" transform="translate(167.000000, 36.000000)">
                <g transform="translate(0.000000, 1.148438)" id="Group-2" fill-rule="nonzero">
                    <g>
                        <polygon id="Shape" fill="#C30023" transform="translate(8.615385, 19.000000) scale(-1, 1) translate(-8.615385, -19.000000) " points="0 4.218 0 23.446 0 38 14.6026605 29.697 17.2307692 6.308 0 0"></polygon>
                        <path d="M17.6070436,5.2256894 L7.53846154,28.3896952 L7.53846154,28.3896952 L11.2925548,28.3896952 L11.2925548,28.3896952 L13.3166512,23.206638 L21.862836,23.206638 L23.8869323,28.3896952 L23.8869323,28.3896952 L27.6410256,28.3896952 L27.6410256,28.3896952 L17.6070436,5.2256894 L17.6070436,5.2256894 L17.6070436,5.2256894 L17.6070436,5.2256894 L17.6070436,5.2256894 Z M20.5480383,20.0116027 L14.6660488,20.0116027 L17.6070436,12.7517725 L20.5480383,20.0116027 Z" id="Shape" fill="#F8F8F8"></path>
                    </g>
                </g>
                <path d="M38.1939062,17.1484375 L36.2699062,17.1484375 C36.0359062,17.1484375 35.9059062,17.0704375 35.8799062,16.9144375 C35.6199062,15.8224375 35.3339062,14.7564375 35.0999062,13.6904375 L30.4979062,13.6904375 C30.4199062,13.9504375 29.9519062,15.8744375 29.7179062,16.9144375 C29.6919062,17.0964375 29.5359062,17.1484375 29.3539062,17.1484375 L27.5599062,17.1484375 C27.2999062,17.1484375 27.1179062,16.9924375 27.2219062,16.7064375 L31.0439062,1.4444375 C31.0959062,1.2624375 31.2259062,1.1064375 31.5119062,1.1064375 L34.0859062,1.1064375 C34.3459062,1.1064375 34.4759062,1.1584375 34.5539062,1.4184375 L38.4799062,16.6544375 C38.5579062,16.8624375 38.5059062,17.1484375 38.1939062,17.1484375 Z M32.7339063,3.9144375 C32.5259063,4.9804375 32.2659063,6.0204375 32.0579063,7.0864375 L31.0179063,11.5584375 L34.5799063,11.5584375 L33.5399063,7.1644375 L32.8119063,3.9144375 L32.7339063,3.9144375 Z" id="Combined-Shape" fill="#585858"></path>
                <path d="M49.7899062,16.8364375 L49.7899062,9.9204375 C49.7899062,7.3464375 48.3859062,5.5524375 45.7599062,5.5524375 C44.8239062,5.5524375 43.6019062,5.8644375 42.8219062,6.5924375 C42.7959062,6.5924375 42.7699062,6.5664375 42.7439062,6.5664375 L42.7439062,5.9944375 C42.7439062,5.7604375 42.6659062,5.6824375 42.4579062,5.6824375 L40.6639062,5.6824375 C40.4559062,5.6824375 40.3519062,5.8124375 40.3519062,6.0204375 L40.3519062,16.8364375 C40.3519062,17.0444375 40.4819062,17.1484375 40.6899062,17.1484375 L42.4839062,17.1484375 C42.7179062,17.1484375 42.8219062,17.0444375 42.8219062,16.8364375 L42.8219062,9.9204375 C42.8219062,8.6464375 43.7839062,7.6844375 45.0839062,7.6844375 C46.6439062,7.6844375 47.3199062,8.6464375 47.3199062,9.9464375 L47.3199062,16.8364375 C47.3199062,17.0444375 47.4239062,17.1484375 47.6579062,17.1484375 L49.4779062,17.1484375 C49.6859062,17.1484375 49.7899062,17.0444375 49.7899062,16.8364375 Z" id="Path" fill="#585858"></path>
                <path d="M53.8459062,13.2484375 C52.6759062,12.4684375 51.9739062,11.2204375 51.9739062,9.7124375 C51.9739062,7.3464375 54.1059062,5.5004375 56.5759062,5.5004375 C57.6939062,5.5004375 58.9679062,5.8124375 59.7739062,6.5404375 C60.6839062,5.8904375 61.5679062,5.5784375 62.3999062,5.5784375 C62.6859062,5.5784375 62.7899062,5.7084375 62.7899062,5.9684375 L62.7899062,7.4244375 C62.7899062,7.6844375 62.7379062,7.7364375 62.5299062,7.7364375 C62.0099062,7.7364375 61.4379062,7.6844375 60.8659062,7.8664375 C61.2559062,8.5424375 61.3859062,9.1144375 61.3859062,9.7124375 C61.3859062,12.1564375 59.2279062,13.9504375 56.5759062,13.9504375 C55.5099062,13.9504375 54.3919062,14.6524375 54.3139062,15.6924375 C55.4579062,15.4324375 56.6279062,15.3544375 57.2519062,15.3544375 C59.7479062,15.3544375 62.5559062,16.1604375 62.5559062,18.8124375 C62.5559062,20.3464375 61.1779062,21.7504375 59.8259062,22.3484375 C59.5919062,22.4524375 59.3059062,22.5304375 59.1499062,22.2444375 L58.4479062,21.1784375 C58.3179062,20.9704375 58.3699062,20.7884375 58.6559062,20.6324375 C59.3579062,20.2164375 60.0599062,19.5664375 60.0599062,18.9164375 C60.0599062,17.7984375 58.5519062,17.5124375 57.3039062,17.5124375 C56.1859062,17.5124375 54.5479062,17.7204375 53.2999062,17.9024375 C53.1959062,17.9284375 53.1179062,17.9284375 53.0399062,17.9284375 C52.3379062,17.9284375 52.0519062,16.6284375 52.0519062,15.7964375 C52.0519062,14.8864375 52.7799062,13.8204375 53.8459062,13.2484375 Z M58.9419062,9.8164375 C58.9419062,8.6464375 58.0059062,7.6324375 56.7059062,7.6324375 C55.3019062,7.6324375 54.3659062,8.6464375 54.3659062,9.8164375 C54.3659062,10.9864375 55.2239062,12.0004375 56.6019062,12.0004375 C58.0319062,12.0004375 58.9419062,11.0124375 58.9419062,9.8164375 Z" id="Combined-Shape" fill="#585858"></path>
                <path d="M64.2199063,6.0204375 L64.2199063,12.9364375 C64.2199063,15.5104375 65.5979062,17.2784375 68.2499063,17.2784375 C69.1859063,17.2784375 70.4339063,16.9924375 71.2139063,16.2644375 C71.2139063,16.2644375 71.2399063,16.2904375 71.2659063,16.2904375 L71.2659063,16.8624375 C71.2659063,17.0704375 71.3439063,17.1484375 71.5519063,17.1484375 L73.3459062,17.1484375 C73.5539062,17.1484375 73.6579062,17.0444375 73.6579062,16.8364375 L73.6579062,5.9944375 C73.6579062,5.8124375 73.5279063,5.6824375 73.3199063,5.6824375 L71.5259062,5.6824375 C71.3179062,5.6824375 71.1879062,5.8124375 71.1879062,6.0204375 L71.1879062,12.9104375 C71.1879062,14.2104375 70.2259063,15.1724375 68.9519063,15.1724375 C67.3659062,15.1724375 66.6899063,14.1844375 66.6899063,12.9104375 L66.6899063,5.9944375 C66.6899063,5.8124375 66.5859062,5.6824375 66.3519062,5.6824375 L64.5319062,5.6824375 C64.3499063,5.6824375 64.2199063,5.8124375 64.2199063,6.0204375 Z" id="Path" fill="#585858"></path>
                <path d="M76.7259063,0.8464375 L76.7259063,13.8464375 C76.7259063,16.2124375 77.3759063,17.3564375 79.7159063,17.3564375 C79.8719062,17.3564375 80.2619063,17.3564375 80.5219063,17.3044375 C80.7559063,17.2784375 80.8859063,17.2004375 80.8859063,16.8884375 L80.8859063,15.4844375 C80.8859063,15.3024375 80.8599062,15.0424375 80.5999063,15.0424375 L80.2879062,15.0424375 C79.4559062,15.0424375 79.1959063,14.7824375 79.1959063,13.6904375 L79.1959063,0.8204375 C79.1959063,0.6644375 79.0919062,0.5864375 78.9359063,0.5864375 L76.9599063,0.5864375 C76.8039063,0.5864375 76.7259063,0.6904375 76.7259063,0.8464375 Z" id="Path" fill="#585858"></path>
                <path d="M87.1519062,5.4744375 C90.4279063,5.4744375 91.4939063,7.1384375 91.4939063,9.7904375 L91.4939063,16.8364375 C91.4939063,17.0704375 91.3899062,17.1484375 91.2079063,17.1484375 L89.4659063,17.1484375 C89.2839063,17.1484375 89.2059062,17.0444375 89.2059062,16.8884375 L89.2059062,16.2904375 L89.1279062,16.2644375 C88.3479062,17.0444375 87.3859063,17.3044375 86.3199063,17.3044375 C83.7199063,17.3044375 82.2899063,15.6924375 82.2899063,13.3264375 C82.2899063,11.0644375 83.7719063,9.2964375 86.5279063,9.2964375 C87.2819063,9.2964375 88.3219063,9.4784375 88.9199062,9.9464375 L88.9979062,9.9464375 L88.9979062,9.3484375 C88.9979062,8.1784375 88.4259062,7.5284375 86.8139063,7.5284375 C86.1119063,7.5284375 84.9159063,7.7624375 84.1879062,8.1004375 C83.9279063,8.2044375 83.7979063,8.1524375 83.7199063,7.9444375 L83.2779063,6.6704375 C83.2259063,6.4884375 83.2779063,6.3064375 83.4339063,6.2544375 C84.4219063,5.7864375 85.8259063,5.4744375 87.1519062,5.4744375 Z M84.5779063,13.2484375 C84.5779063,14.4184375 85.1759063,15.3284375 86.7099063,15.3284375 C88.0099063,15.3284375 88.8419063,14.4444375 88.8419063,13.2484375 C88.8419063,12.0784375 88.1659063,11.1684375 86.7099063,11.1684375 C85.4099063,11.1684375 84.5779063,12.0524375 84.5779063,13.2484375 Z" id="Combined-Shape" fill="#585858"></path>
                <path d="M94.7179063,5.7084375 C94.5099063,5.7084375 94.4059063,5.8124375 94.4059063,6.0204375 L94.4059063,16.8364375 C94.4059063,17.0444375 94.5359063,17.1484375 94.7439063,17.1484375 L96.5639063,17.1484375 C96.7719063,17.1484375 96.8759063,17.0444375 96.8759063,16.8364375 L96.8759063,10.8304375 C96.8759063,9.1924375 97.4999063,7.9964375 99.3199063,7.9964375 C99.6059063,7.9964375 99.9699063,8.1004375 100.281906,8.1004375 C100.411906,8.1004375 100.515906,8.0224375 100.567906,7.7624375 L100.931906,6.0984375 C100.957906,6.0204375 100.957906,5.9684375 100.957906,5.8904375 C100.957906,5.6044375 100.437906,5.5004375 99.8399063,5.5004375 C98.5139063,5.5004375 97.3179063,6.2544375 96.7199063,7.2424375 L96.6419063,7.2424375 L96.6419063,5.9944375 C96.6419063,5.7864375 96.5119063,5.7084375 96.2779063,5.7084375 L94.7179063,5.7084375 Z" id="Path" fill="#585858"></path>
                <path d="M105.299906,15.8224375 C105.299906,14.9644375 104.597906,14.2884375 103.713906,14.2884375 C102.881906,14.2884375 102.179906,14.9904375 102.179906,15.8224375 C102.179906,16.6544375 102.881906,17.3564375 103.713906,17.3564375 C104.597906,17.3564375 105.299906,16.6544375 105.299906,15.8224375 Z" id="Path" fill="#585858"></path>
                <path d="M38.0899062,34.6244375 C38.0899062,31.4784375 35.5939062,30.6464375 33.3319062,29.8144375 C32.0319062,29.3204375 30.4459062,28.7484375 30.4459062,27.4224375 C30.4459062,25.7064375 31.6159062,25.1344375 32.9679062,25.1344375 C33.8779062,25.1344375 34.8399062,25.4724375 35.9059062,26.0704375 C36.1659062,26.2004375 36.4779062,26.2264375 36.6339063,25.9664375 L37.2839062,24.8484375 C37.4399062,24.5884375 37.5699062,24.4064375 37.2319063,24.1464375 C35.8539063,23.1844375 34.2419062,22.8984375 32.7599062,22.8984375 C30.0819062,22.8984375 27.8979062,24.5884375 27.8979062,27.3964375 C27.8979062,30.2564375 30.3159062,31.2704375 32.3439062,31.9724375 C33.9819062,32.5444375 35.5159062,33.1164375 35.5159062,34.7024375 C35.5159062,36.1584375 34.4239062,37.0424375 32.4999062,37.0424375 C31.4339062,37.0424375 30.1599062,36.5484375 29.3019062,35.7164375 C29.0159062,35.4824375 28.8599062,35.3524375 28.5999062,35.6124375 L27.6119062,36.6264375 C27.3259062,36.9124375 27.3519062,37.0684375 27.5859062,37.3024375 C28.7039062,38.6284375 30.6279062,39.2784375 32.5519062,39.2784375 C35.7499063,39.2784375 38.0899062,37.5364375 38.0899062,34.6244375 Z" id="Path" fill="#C30023"></path>
                <path d="M49.0619062,37.0684375 C49.2179062,36.8604375 49.1659062,36.6784375 48.8279062,36.4444375 L47.7619062,35.7424375 C47.4499062,35.5344375 47.3199062,35.5864375 47.1119062,35.8464375 C46.7479062,36.3404375 46.0979062,37.1464375 44.8239062,37.1464375 C43.5499062,37.1464375 42.5619062,36.2364375 42.5619062,34.9884375 L42.5619062,31.8424375 C42.5619062,30.5684375 43.5499062,29.6324375 44.8499062,29.6324375 C45.4479062,29.6324375 46.4619062,30.0744375 46.9819062,30.8804375 C47.1379062,31.1404375 47.3199062,31.3744375 47.6839062,31.1144375 L48.8539062,30.2824375 C49.0879062,30.1264375 49.0879062,29.8144375 48.9839062,29.6584375 C47.9959062,28.2284375 46.5399062,27.5004375 44.9019062,27.5004375 C42.1719062,27.5004375 40.0919062,29.2164375 40.0919062,31.9724375 L40.0919062,34.9364375 C40.0919062,37.6144375 41.9899062,39.3044375 44.8499062,39.3044375 C46.6179062,39.3044375 48.0219062,38.6024375 49.0619062,37.0684375 Z" id="Path" fill="#C30023"></path>
                <path d="M60.5799062,38.8104375 L60.5799062,31.9204375 C60.5799062,29.3464375 59.2279062,27.5264375 56.4979062,27.5264375 C55.6659062,27.5264375 54.4699062,27.7344375 53.6899062,28.4364375 L53.5859062,28.4104375 L53.5859062,22.9244375 C53.5859062,22.6904375 53.4819062,22.5864375 53.2739062,22.5864375 L51.4539062,22.5864375 C51.2459062,22.5864375 51.1419062,22.6904375 51.1419062,22.9244375 L51.1419062,38.8364375 C51.1419062,39.0444375 51.2719062,39.1484375 51.4799062,39.1484375 L53.2739062,39.1484375 C53.5079062,39.1484375 53.6119062,39.0444375 53.6119062,38.8104375 L53.6119062,31.9464375 C53.6119062,30.6464375 54.4959062,29.6584375 55.8739062,29.6584375 C57.4339062,29.6584375 58.1099062,30.6204375 58.1099062,31.9464375 L58.1099062,38.8364375 C58.1099062,39.0444375 58.2139062,39.1484375 58.4479062,39.1484375 L60.2679062,39.1484375 C60.4759062,39.1484375 60.5799062,39.0444375 60.5799062,38.8104375 Z" id="Path" fill="#C30023"></path>
                <path d="M63.2059063,28.0204375 L63.2059063,34.9364375 C63.2059063,37.5104375 64.5839063,39.2784375 67.2359062,39.2784375 C68.1719063,39.2784375 69.4199062,38.9924375 70.1999062,38.2644375 C70.1999062,38.2644375 70.2259063,38.2904375 70.2519063,38.2904375 L70.2519063,38.8624375 C70.2519063,39.0704375 70.3299063,39.1484375 70.5379063,39.1484375 L72.3319063,39.1484375 C72.5399063,39.1484375 72.6439063,39.0444375 72.6439063,38.8364375 L72.6439063,27.9944375 C72.6439063,27.8124375 72.5139063,27.6824375 72.3059063,27.6824375 L70.5119063,27.6824375 C70.3039063,27.6824375 70.1739063,27.8124375 70.1739063,28.0204375 L70.1739063,34.9104375 C70.1739063,36.2104375 69.2119062,37.1724375 67.9379062,37.1724375 C66.3519063,37.1724375 65.6759062,36.1844375 65.6759062,34.9104375 L65.6759062,27.9944375 C65.6759062,27.8124375 65.5719063,27.6824375 65.3379063,27.6824375 L63.5179063,27.6824375 C63.3359063,27.6824375 63.2059063,27.8124375 63.2059063,28.0204375 Z" id="Path" fill="#C30023"></path>
                <path d="M75.7119062,22.8464375 L75.7119062,35.8464375 C75.7119062,38.2124375 76.3619063,39.3564375 78.7019063,39.3564375 C78.8579063,39.3564375 79.2479062,39.3564375 79.5079063,39.3044375 C79.7419062,39.2784375 79.8719062,39.2004375 79.8719062,38.8884375 L79.8719062,37.4844375 C79.8719062,37.3024375 79.8459063,37.0424375 79.5859063,37.0424375 L79.2739063,37.0424375 C78.4419063,37.0424375 78.1819062,36.7824375 78.1819062,35.6904375 L78.1819062,22.8204375 C78.1819062,22.6644375 78.0779063,22.5864375 77.9219063,22.5864375 L75.9459063,22.5864375 C75.7899063,22.5864375 75.7119062,22.6904375 75.7119062,22.8464375 Z" id="Path" fill="#C30023"></path>
                <path d="M90.8439063,33.2464375 C90.8439063,33.6624375 90.5319063,33.9484375 90.2199063,33.9484375 L83.8759063,33.9484375 L83.8759063,34.8584375 C83.8759063,36.1064375 84.5519063,37.1724375 86.1379063,37.1724375 C87.1779063,37.1724375 88.0099063,36.4964375 88.5039062,35.8984375 C88.7119062,35.6384375 88.8939063,35.6644375 89.0759063,35.7944375 L90.1419063,36.5224375 C90.3239063,36.6264375 90.5579063,36.7824375 90.3499063,37.1464375 C89.4399063,38.6804375 87.8539063,39.3044375 86.0859063,39.3044375 C83.2259063,39.3044375 81.4059063,37.5884375 81.4059063,34.9624375 L81.4059063,32.0244375 C81.4059063,29.3464375 83.3559063,27.5004375 86.1379063,27.5004375 C88.9719063,27.5004375 90.8439063,29.3204375 90.8439063,32.0244375 L90.8439063,33.2464375 Z M86.1379063,29.6064375 C84.8379063,29.6064375 83.9019063,30.3864375 83.9019063,31.7384375 L83.9019063,32.1544375 L88.3739063,32.1544375 L88.3739063,31.7124375 C88.3739063,30.5424375 87.5939063,29.6064375 86.1379063,29.6064375 Z" id="Combined-Shape" fill="#C30023"></path>
            </g>
        </g>
    </g>
</svg>

<?xml version="1.0" encoding="utf-8"?>
<!-- Generator: Adobe Illustrator 16.0.0, SVG Export Plug-In . SVG Version: 6.00 Build 0)  -->
<!DOCTYPE svg PUBLIC "-//W3C//DTD SVG 1.1//EN" "http://www.w3.org/Graphics/SVG/1.1/DTD/svg11.dtd">
<svg version="1.1" xmlns="http://www.w3.org/2000/svg" xmlns:xlink="http://www.w3.org/1999/xlink" x="0px" y="0px" width="106px"
	 height="40px" viewBox="0 0 106 40" enable-background="new 0 0 106 40" xml:space="preserve">
<g id="Ebene_1">
	<title>brand</title>
	<desc>Created with Sketch.</desc>
	<path id="Combined-Shape" fill="#585858" d="M38.194,17.148H36.27c-0.234,0-0.364-0.078-0.39-0.234
		c-0.26-1.092-0.546-2.158-0.78-3.224h-4.602c-0.078,0.26-0.546,2.184-0.78,3.224c-0.026,0.182-0.182,0.234-0.364,0.234H27.56
		c-0.26,0-0.442-0.156-0.338-0.442l3.822-15.262c0.052-0.182,0.182-0.338,0.468-0.338h2.574c0.26,0,0.39,0.052,0.468,0.312
		l3.926,15.236C38.558,16.862,38.506,17.148,38.194,17.148z M32.734,3.915c-0.208,1.066-0.468,2.106-0.676,3.172l-1.04,4.472h3.562
		l-1.04-4.394l-0.728-3.25H32.734z"/>
	<path id="Path" fill="#585858" d="M49.79,16.836V9.92c0-2.574-1.404-4.368-4.03-4.368c-0.936,0-2.158,0.312-2.938,1.04
		c-0.026,0-0.052-0.026-0.078-0.026V5.995c0-0.234-0.078-0.312-0.286-0.312h-1.794c-0.208,0-0.312,0.13-0.312,0.338v10.816
		c0,0.208,0.13,0.312,0.338,0.312h1.794c0.234,0,0.338-0.104,0.338-0.312V9.92c0-1.274,0.962-2.236,2.262-2.236
		c1.56,0,2.236,0.962,2.236,2.262v6.89c0,0.208,0.104,0.312,0.338,0.312h1.82C49.686,17.148,49.79,17.044,49.79,16.836z"/>
	<path id="Combined-Shape_1_" fill="#585858" d="M53.846,13.249c-1.17-0.78-1.872-2.028-1.872-3.536
		c0-2.366,2.131-4.212,4.602-4.212c1.117,0,2.392,0.312,3.197,1.04c0.91-0.65,1.795-0.962,2.627-0.962c0.285,0,0.39,0.13,0.39,0.39
		v1.456c0,0.26-0.052,0.312-0.261,0.312c-0.52,0-1.092-0.052-1.664,0.13c0.391,0.676,0.521,1.248,0.521,1.846
		c0,2.444-2.157,4.238-4.81,4.238c-1.066,0-2.184,0.702-2.262,1.742c1.144-0.26,2.313-0.338,2.938-0.338
		c2.496,0,5.304,0.806,5.304,3.458c0,1.534-1.378,2.938-2.729,3.536c-0.234,0.104-0.521,0.182-0.676-0.104l-0.703-1.065
		c-0.129-0.208-0.077-0.39,0.209-0.546c0.701-0.417,1.404-1.066,1.404-1.716c0-1.118-1.509-1.404-2.757-1.404
		c-1.118,0-2.756,0.208-4.004,0.39c-0.104,0.026-0.182,0.026-0.26,0.026c-0.702,0-0.988-1.3-0.988-2.132
		C52.052,14.886,52.78,13.82,53.846,13.249z M58.941,9.816c0-1.17-0.936-2.184-2.235-2.184c-1.404,0-2.341,1.014-2.341,2.184
		S55.225,12,56.602,12C58.031,12,58.941,11.013,58.941,9.816z"/>
	<path id="Path_1_" fill="#585858" d="M64.22,6.021v6.916c0,2.574,1.378,4.342,4.03,4.342c0.936,0,2.184-0.286,2.964-1.014
		c0,0,0.026,0.026,0.052,0.026v0.572c0,0.208,0.078,0.286,0.286,0.286h1.794c0.208,0,0.313-0.104,0.313-0.312V5.995
		c0-0.182-0.131-0.312-0.338-0.312h-1.795c-0.207,0-0.338,0.13-0.338,0.338v6.89c0,1.3-0.961,2.262-2.236,2.262
		c-1.586,0-2.262-0.988-2.262-2.262V5.995c0-0.182-0.104-0.312-0.338-0.312h-1.82C64.35,5.683,64.22,5.813,64.22,6.021z"/>
	<path id="Path_2_" fill="#585858" d="M76.727,0.847v13c0,2.366,0.649,3.51,2.989,3.51c0.156,0,0.546,0,0.806-0.052
		c0.234-0.026,0.364-0.104,0.364-0.416v-1.404c0-0.182-0.026-0.442-0.286-0.442h-0.312c-0.832,0-1.093-0.26-1.093-1.352V0.82
		c0-0.156-0.104-0.234-0.26-0.234H76.96C76.804,0.586,76.727,0.69,76.727,0.847z"/>
	<path id="Combined-Shape_2_" fill="#585858" d="M87.152,5.475c3.275,0,4.342,1.664,4.342,4.316v7.046
		c0,0.234-0.104,0.312-0.286,0.312h-1.742c-0.183,0-0.26-0.104-0.26-0.26v-0.598l-0.078-0.026c-0.78,0.78-1.742,1.04-2.808,1.04
		c-2.601,0-4.03-1.612-4.03-3.979c0-2.262,1.481-4.03,4.237-4.03c0.754,0,1.795,0.182,2.393,0.65h0.078V9.349
		c0-1.17-0.572-1.82-2.184-1.82c-0.703,0-1.898,0.234-2.627,0.572c-0.26,0.104-0.39,0.052-0.468-0.156L83.277,6.67
		c-0.051-0.182,0-0.364,0.156-0.416C84.422,5.787,85.826,5.475,87.152,5.475z M84.578,13.249c0,1.17,0.598,2.08,2.132,2.08
		c1.3,0,2.132-0.884,2.132-2.08c0-1.17-0.676-2.08-2.132-2.08C85.41,11.168,84.578,12.052,84.578,13.249z"/>
	<path id="Path_3_" fill="#585858" d="M94.718,5.708c-0.208,0-0.312,0.104-0.312,0.312v10.816c0,0.208,0.13,0.312,0.338,0.312h1.82
		c0.207,0,0.312-0.104,0.312-0.312v-6.006c0-1.638,0.624-2.834,2.444-2.834c0.285,0,0.649,0.104,0.961,0.104
		c0.131,0,0.234-0.078,0.287-0.338l0.363-1.664c0.026-0.078,0.026-0.13,0.026-0.208c0-0.286-0.521-0.39-1.118-0.39
		c-1.326,0-2.521,0.754-3.12,1.742h-0.077V5.995c0-0.208-0.131-0.286-0.365-0.286H94.718z"/>
	<path id="Path_4_" fill="#585858" d="M105.3,15.822c0-0.858-0.702-1.534-1.586-1.534c-0.832,0-1.534,0.702-1.534,1.534
		s0.702,1.534,1.534,1.534C104.598,17.356,105.3,16.654,105.3,15.822z"/>
	<path id="Path_5_" fill="#C30023" d="M38.09,34.625c0-3.146-2.496-3.979-4.758-4.811c-1.3-0.494-2.886-1.066-2.886-2.393
		c0-1.715,1.17-2.287,2.522-2.287c0.91,0,1.872,0.338,2.938,0.936c0.26,0.13,0.572,0.156,0.728-0.104l0.65-1.118
		c0.156-0.261,0.286-0.442-0.052-0.702c-1.378-0.962-2.99-1.248-4.472-1.248c-2.678,0-4.862,1.689-4.862,4.498
		c0,2.859,2.418,3.874,4.446,4.576c1.638,0.572,3.172,1.144,3.172,2.73c0,1.455-1.092,2.34-3.016,2.34
		c-1.066,0-2.34-0.494-3.198-1.326c-0.286-0.234-0.442-0.364-0.702-0.104l-0.988,1.015c-0.286,0.285-0.26,0.441-0.026,0.676
		c1.118,1.326,3.042,1.976,4.966,1.976C35.75,39.278,38.09,37.537,38.09,34.625z"/>
	<path id="Path_6_" fill="#C30023" d="M49.062,37.068c0.156-0.208,0.104-0.39-0.234-0.624l-1.066-0.702
		c-0.312-0.208-0.442-0.156-0.65,0.104c-0.364,0.493-1.014,1.3-2.288,1.3c-1.274,0-2.262-0.91-2.262-2.158v-3.146
		c0-1.273,0.988-2.209,2.288-2.209c0.598,0,1.612,0.441,2.132,1.248c0.156,0.26,0.338,0.494,0.702,0.233l1.17-0.832
		c0.234-0.155,0.234-0.468,0.13-0.624c-0.988-1.43-2.444-2.158-4.082-2.158c-2.73,0-4.81,1.717-4.81,4.473v2.964
		c0,2.678,1.898,4.368,4.758,4.368C46.618,39.305,48.022,38.603,49.062,37.068z"/>
	<path id="Path_7_" fill="#C30023" d="M60.58,38.811V31.92c0-2.573-1.352-4.394-4.082-4.394c-0.832,0-2.028,0.208-2.809,0.91
		l-0.104-0.026v-5.486c0-0.233-0.104-0.338-0.312-0.338h-1.82c-0.208,0-0.312,0.104-0.312,0.338v15.912
		c0,0.209,0.13,0.313,0.338,0.313h1.794c0.234,0,0.337-0.104,0.337-0.338v-6.864c0-1.3,0.885-2.288,2.263-2.288
		c1.56,0,2.235,0.963,2.235,2.288v6.89c0,0.209,0.104,0.313,0.338,0.313h1.82C60.477,39.148,60.58,39.045,60.58,38.811z"/>
	<path id="Path_8_" fill="#C30023" d="M63.206,28.021v6.916c0,2.573,1.378,4.342,4.03,4.342c0.936,0,2.184-0.286,2.963-1.014
		c0,0,0.027,0.026,0.053,0.026v0.571c0,0.208,0.078,0.286,0.286,0.286h1.794c0.208,0,0.313-0.104,0.313-0.313V27.994
		c0-0.182-0.131-0.312-0.338-0.312h-1.795c-0.208,0-0.338,0.13-0.338,0.338v6.89c0,1.301-0.962,2.262-2.236,2.262
		c-1.586,0-2.262-0.987-2.262-2.262v-6.916c0-0.182-0.104-0.312-0.338-0.312h-1.82C63.336,27.683,63.206,27.813,63.206,28.021z"/>
	<path id="Path_9_" fill="#C30023" d="M75.712,22.847v13c0,2.366,0.649,3.51,2.989,3.51c0.156,0,0.547,0,0.807-0.052
		c0.234-0.026,0.364-0.104,0.364-0.416v-1.404c0-0.182-0.026-0.441-0.286-0.441h-0.313c-0.832,0-1.092-0.261-1.092-1.353V22.82
		c0-0.156-0.104-0.234-0.26-0.234h-1.977C75.79,22.586,75.712,22.69,75.712,22.847z"/>
	<path id="Combined-Shape_3_" fill="#C30023" d="M90.844,33.246c0,0.416-0.313,0.702-0.624,0.702h-6.344v0.91
		c0,1.248,0.676,2.313,2.262,2.313c1.04,0,1.872-0.676,2.366-1.273c0.208-0.26,0.391-0.234,0.572-0.104l1.066,0.728
		c0.182,0.104,0.416,0.26,0.207,0.624c-0.91,1.534-2.496,2.158-4.264,2.158c-2.859,0-4.68-1.717-4.68-4.342v-2.938
		c0-2.678,1.949-4.524,4.731-4.524c2.834,0,4.706,1.82,4.706,4.524V33.246z M86.138,29.606c-1.3,0-2.235,0.78-2.235,2.132v0.416
		h4.472v-0.441C88.374,30.543,87.594,29.606,86.138,29.606z"/>
</g>
<g id="Ebene_2">
	<g id="brand" transform="translate(-172.000000, -30.000000)">
		<g transform="translate(172.000000, 30.000000)">
			<g id="Group-2_1_" transform="translate(0.000000, 1.000000)">
				<polygon id="Shape_2_" fill="#C30023" points="17.23,4.218 17.23,23.445 17.23,38 2.628,29.697 0,6.308 17.23,0 				"/>
				<polygon fill="none" points="14.282,20.012 20.164,20.012 17.225,12.752 				"/>
			</g>
		</g>
	</g>
	<g>
		<polygon fill="none" points="17.207,21.012 17.207,13.794 14.282,21.012 		"/>
		<polygon fill="#F8F8F8" points="14.348,21.012 17.271,13.794 17.271,6.265 7.22,29.391 10.975,29.391 12.999,24.207 
			17.271,24.207 17.271,21.012 		"/>
	</g>
</g>
</svg>
